!!!OTL: Hongjun bujiu yaoguilai
!!!ARE: Asia, China,ÿSichuan Nanjiang
!! II, 234
!!!SCT: C1878
!!!YEM: Copyright 1995, estate of Helmut Schaffrath.
**kern
*ICvox
*Ivox
!! Mixed meters:  2/4; 3/4
*M3/4
*k[f#]
*G:
{16e
16d
16c
16d
4e}
=1
{16g
16g
16d
16g
4e}
=2
{8g
16b
16g
8a
16b
16g
4a}
=3
*M2/4
{16e
16g
16a
16g
4e}
=4
*M3/4
{16d
16d
16d
16e
8g
16a
16b
4a}
=5
*M2/4
{16e
16g
16a
16e
4g}
=6
{16e
16g
8a
8e
8g
=7
16e
16e
16g
16e
4d}
=8
{16b
16g
16a
16b
16g
16a
8b
=9
*M3/4
8g
16a
16b
16a
16b
4.a
=10
*M2/4
2g}
=11
*M3/4
{16b
16b
16a
16g
8a
16g
16b
8.a
16g
=12
*M2/4
16e
16g
16a
16e
8.g
16e
=13
*M3/4
16a
8g
16g
8a
8e
4d}
=14
*M2/4
{16e
16d
16B
16d
16B
16d
8e}
=15
{16B
16d
16B
16d
16e
16g
8e}
=16
{8.g
16e
16d
16e
8g
=17
8g
16a
16b
16a
16b
8g}
=18
*M3/4
{16g
16g
16e
16d
16b
16a
16g
16b
4a}
=19
*M2/4
{16e
16g
16a
16e
4g}
=20
{8cc
8a
16g
16a
8cc
=21
16a
16cc
16cc
16e
4g}
=22
{16a
8g
16g
8a
8e
=23
2d}
==
!!!AGN: Shange
!!!AMT: irregular
!!!AIN: vox
!!!EED: Helmut Schaffrath
!!!EEV: 1.0
*-
